X:1
T:Nikolaus, CM
T:Nikolaus, CM
T:Nikolaus Hermann, 1554
T:Public Domain Courtesy of the Cyber Hymnal™
C:Nikolaus Hermann, 1554
Z:Public Domain
Z:Courtesy of the Cyber Hymnal™
%%score ( 1 2 ) ( 3 4 )
L:1/8
Q:1/4=115
M:4/4
K:Eb
V:1 treble 
V:2 treble 
V:3 bass 
V:4 bass 
V:1
 E2 | [EB]2 [EB]2 [DB]2 [EB]2 | [Ec]2 (BA) [EG]2 [EG]2 | [FA]2 [EB]2 [Gc]2 [Fc]2 | [DB]6 [EB]2 | %5
 [FB]2 [DB]2 [DB][DB] [EG]2 | [FB]2 (AG) [DF]2 [DB]2 | [EG]2 (FE) [EF]2 [DF]2 | E6 |] %9
V:2
 E2 | x8 | x2 D2 x4 | x8 | x8 | x8 | x2 E2 x4 | x2 E2 x4 | E6 |] %9
V:3
 [E,G,]2 | [E,G,]2 [E,G,]2 [B,,F,]2 [E,G,]2 | [A,,A,]2 (F,B,) [E,B,]2 [C,C]2 | %3
 [F,C]2 [G,B,]2 [E,B,]2 [F,=A,]2 | [B,,B,]6 [E,G,]2 | [D,F,]2 [E,G,]2 [B,,F,][B,,F,] [C,C]2 | %6
 [D,B,]2 [E,B,]2 [B,,B,]2 [G,,B,]2 | [C,E,]2 [G,,B,]2 [A,,C]2 [B,,B,]2 | [E,G,]6 |] %9
V:4
 x2 | x8 | x2 B,,2 x4 | x8 | x8 | x8 | x8 | x8 | x6 |] %9

